X: 232
T: Old as the hills
C: anon.
O: Ireland
B: Francis O'Neill: "The Dance Music of Ireland" (1907) no. 232
R: Double jig
Z: Transcribed by Frank Nordberg - http://www.musicaviva.com
F: http://www.musicaviva.com/abc/tunes/ireland/oneill-1001/oneill-1001-023
2.abc
M: 6/8
L: 1/8
K: A
a|ABA cBA|d2e fga|ABA c2A|dBG Bcd|ecA Ace|d2e fga|ece dBG|Ace a2:|
|:e|A2B c2d|efe e3|d2B Bcd|e2d cBA|f2g agf|e2d c2a|c2A BGB A3 A2:|
W:
W:
W: From Musica Viva - http://www.musicaviva.com
W: the Internet center for free sheet music downloads.


